X: 1
T: MISS JOHNSON'S -- REEL
B: Ryan's Mammoth Collection of Fiddle Tunes
R: reel
M: 2/4
L: 1/16
Z: Contributed 20010522160935 by John Chambers jc:trillian.mit.edu
K: G
vdc "^Segno"|]\
  Bcde dcBc | dBgB bBgB | Bcde dcBc | Aaag fedc \
| Bcde dcBc | dBgBbBgB | bagf gfed | egfa gedc |]
 .B.c.B.A .G2.B(G | D)(GB)(G D)(GB2) | .B.c.B.A .G2.B(G | F)(GA).B .c.e.d.c \
| BcBA G2.B(G | D)(GB)(G D)(GB).c | dBcA BGAF | DEFG ABcA "^Segno"|]
